storage/app/icons/phosphoricons/duotone/scroll-duotone.svg

<svg xmlns="http://www.w3.org/2000/svg" fill="currentColor" viewBox="0 0 256 256"><path d="M200 176h-96s8 6 8 16a24 24 0 0 1-48 0V64a24 24 0 0 0-24-24h136a24 24 0 0 1 24 24Z" opacity=".2"/><path d="M96 104a8 8 0 0 1 8-8h64a8 8 0 0 1 0 16h-64a8 8 0 0 1-8-8m8 40h64a8 8 0 0 0 0-16h-64a8 8 0 0 0 0 16m128 48a32 32 0 0 1-32 32H88a32 32 0 0 1-32-32V64a16 16 0 0 0-32 0c0 5.74 4.83 9.62 4.88 9.66A8 8 0 0 1 24 88a7.9 7.9 0 0 1-4.79-1.61C18.05 85.54 8 77.61 8 64a32 32 0 0 1 32-32h136a32 32 0 0 1 32 32v104h8a8 8 0 0 1 4.8 1.6c1.2.86 11.2 8.79 11.2 22.4M96.26 173.48A8.07 8.07 0 0 1 104 168h88V64a16 16 0 0 0-16-16H67.69A31.7 31.7 0 0 1 72 64v128a16 16 0 0 0 32 0c0-5.74-4.83-9.62-4.88-9.66a7.82 7.82 0 0 1-2.86-8.86M216 192a12.58 12.58 0 0 0-3.23-8h-94a27 27 0 0 1 1.21 8 31.8 31.8 0 0 1-4.29 16H200a16 16 0 0 0 16-16"/></svg>

<svg xmlns="http://www.w3.org/2000/svg" viewBox="0 0 256 256" fill="currentColor"><path d="M200,176H104s8,6,8,16a24,24,0,0,1-48,0V64A24,24,0,0,0,40,40H176a24,24,0,0,1,24,24Z" opacity="0.2"/><path d="M96,104a8,8,0,0,1,8-8h64a8,8,0,0,1,0,16H104A8,8,0,0,1,96,104Zm8,40h64a8,8,0,0,0,0-16H104a8,8,0,0,0,0,16Zm128,48a32,32,0,0,1-32,32H88a32,32,0,0,1-32-32V64a16,16,0,0,0-32,0c0,5.74,4.83,9.62,4.88,9.66h0A8,8,0,0,1,24,88a7.89,7.89,0,0,1-4.79-1.61h0C18.05,85.54,8,77.61,8,64A32,32,0,0,1,40,32H176a32,32,0,0,1,32,32V168h8a8,8,0,0,1,4.8,1.6C222,170.46,232,178.39,232,192ZM96.26,173.48A8.07,8.07,0,0,1,104,168h88V64a16,16,0,0,0-16-16H67.69A31.71,31.71,0,0,1,72,64V192a16,16,0,0,0,32,0c0-5.74-4.83-9.62-4.88-9.66A7.82,7.82,0,0,1,96.26,173.48ZM216,192a12.58,12.58,0,0,0-3.23-8h-94a26.92,26.92,0,0,1,1.21,8,31.82,31.82,0,0,1-4.29,16H200A16,16,0,0,0,216,192Z"/></svg>
